Manual/img/Component/Blue Whale.svg

<?xml version="1.0" encoding="UTF-8" standalone="no"?>
<svg
   xmlns:dc="http://purl.org/dc/elements/1.1/"
   xmlns:cc="http://creativecommons.org/ns#"
   xmlns:rdf="http://www.w3.org/1999/02/22-rdf-syntax-ns#"
   xmlns:svg="http://www.w3.org/2000/svg"
   xmlns="http://www.w3.org/2000/svg"
   xmlns:sodipodi="http://sodipodi.sourceforge.net/DTD/sodipodi-0.dtd"
   xmlns:inkscape="http://www.inkscape.org/namespaces/inkscape"
   inkscape:version="1.0 (4035a4fb49, 2020-05-01)"
   sodipodi:docname="Blue Whale.svg"
   xml:space="preserve"
   viewBox="0 0 348 348"
   y="0"
   x="0"
   id="Layer_1"
   version="1.1"><metadata
     id="metadata17"><rdf:RDF><cc:Work
         rdf:about=""><dc:format>image/svg+xml</dc:format><dc:type
           rdf:resource="http://purl.org/dc/dcmitype/StillImage" /><dc:title></dc:title></cc:Work></rdf:RDF></metadata><defs
     id="defs15" /><sodipodi:namedview
     inkscape:current-layer="Layer_1"
     inkscape:window-maximized="1"
     inkscape:window-y="-9"
     inkscape:window-x="2391"
     inkscape:cy="167.0493"
     inkscape:cx="156.06532"
     inkscape:zoom="2.8742566"
     showgrid="false"
     id="namedview13"
     inkscape:window-height="1284"
     inkscape:window-width="2400"
     inkscape:pageshadow="2"
     inkscape:pageopacity="0"
     guidetolerance="10"
     gridtolerance="10"
     objecttolerance="10"
     borderopacity="1"
     bordercolor="#666666"
     pagecolor="#ffffff" /><style
     id="style2">.st0,.st1{stroke:#000}.st0{stroke-width:2;fill:none}.st1{fill:#fff;stroke-miterlimit:10}</style><path
     id="path4"
     d="M5.1 5.8H342v337.7H5.1V5.8z"
     class="st0" /><path
     id="path6"
     d="M282.7 40.6c0-8.4 7-15.2 15.6-15.2 4.1 0 8.1 1.6 11 4.4 2.9 2.8 4.6 6.7 4.6 10.7 0 8.4-7 15.2-15.6 15.2s-15.6-6.8-15.6-15.1z"
     class="st0" /><rect
     y="10.326551"
     x="10.649257"
     height="168.12917"
     width="168.12917"
     id="rect842"
     style="opacity:0.999;fill:#ffffff;stroke:#000000;stroke-width:2.078;fill-opacity:1;stroke-miterlimit:4;stroke-dasharray:none" /><path
     id="path844"
     d="M 15.167123,31.30236 28.075312,75.512909 40.660797,30.011541 55.82792,74.544795 65.509062,31.30236"
     style="fill:none;stroke:#000000;stroke-width:1.9;stroke-linecap:butt;stroke-linejoin:miter;stroke-opacity:1;stroke-miterlimit:4;stroke-dasharray:none" /><path
     id="path846"
     d="M 80.368607,30.964528 V 77.585279 52.535323 H 97.76441 V 30.268696 77.585279"
     style="fill:none;stroke:#000000;stroke-width:2;stroke-linecap:butt;stroke-linejoin:miter;stroke-opacity:1;stroke-miterlimit:4;stroke-dasharray:none" /><path
     id="path848"
     d="m 125.59769,30.616612 -16.00413,46.968667 10.08956,-28.877032 h 16.00414 l 12.87289,25.049955 z"
     style="fill:none;stroke:#000000;stroke-width:2;stroke-linecap:butt;stroke-linejoin:miter;stroke-opacity:1;stroke-miterlimit:4;stroke-dasharray:none" /><path
     id="path850"
     d="M 22.962459,89.066508 V 170.47886 H 74.454034"
     style="fill:none;stroke:#000000;stroke-width:2;stroke-linecap:butt;stroke-linejoin:miter;stroke-opacity:1;stroke-miterlimit:4;stroke-dasharray:none" /><path
     id="path852"
     d="M 88.370676,90.110257 V 172.21844 H 143.68933 88.370676 V 129.77269 H 133.94768 88.370676 V 89.414424 h 53.926984"
     style="fill:none;stroke:#000000;stroke-width:2;stroke-linecap:butt;stroke-linejoin:miter;stroke-opacity:1;stroke-miterlimit:4;stroke-dasharray:none" /><rect
     y="204.92255"
     x="16.35206"
     height="41.749928"
     width="152.73514"
     id="rect854"
     style="opacity:0.999;fill:#ffffff;fill-opacity:1;stroke:#000000;stroke-width:2;stroke-miterlimit:4;stroke-dasharray:none" /><rect
     style="opacity:0.999;fill:#ffffff;fill-opacity:1;stroke:#000000;stroke-width:2;stroke-miterlimit:4;stroke-dasharray:none"
     id="rect856"
     width="152.73514"
     height="41.749928"
     x="178.82886"
     y="204.57463" /><rect
     y="278.68076"
     x="17.395813"
     height="41.749928"
     width="152.73514"
     id="rect858"
     style="opacity:0.999;fill:#ffffff;fill-opacity:1;stroke:#000000;stroke-width:2;stroke-miterlimit:4;stroke-dasharray:none" /><rect
     style="opacity:0.999;fill:#ffffff;fill-opacity:1;stroke:#000000;stroke-width:2;stroke-miterlimit:4;stroke-dasharray:none"
     id="rect860"
     width="152.73514"
     height="41.749928"
     x="179.52469"
     y="277.63699" /><ellipse
     style="opacity:0.999;fill:#ffffff;fill-opacity:1;stroke:#000000;stroke-width:2;stroke-miterlimit:4;stroke-dasharray:none"
     id="ellipse870"
     cx="252.93497"
     cy="226.3194"
     rx="14.612474"
     ry="14.786432" /><path
     style="fill:none;stroke:#000000;stroke-width:2;stroke-linecap:butt;stroke-linejoin:miter;stroke-miterlimit:4;stroke-dasharray:none;stroke-opacity:1"
     d="m 273.80993,241.80165 v -31.66036 c 0,0 43.14159,12.87289 0,31.66036 z"
     id="path872" /><path
     id="path874"
     d="m 300.59947,241.10582 v -31.66036 c 0,0 43.14159,12.87289 0,31.66036 z"
     style="fill:none;stroke:#000000;stroke-width:2;stroke-linecap:butt;stroke-linejoin:miter;stroke-miterlimit:4;stroke-dasharray:none;stroke-opacity:1" /><ellipse
     ry="14.786432"
     rx="14.612474"
     cy="298.68594"
     cx="256.41412"
     id="ellipse876"
     style="opacity:0.999;fill:#ffffff;fill-opacity:1;stroke:#000000;stroke-width:2;stroke-miterlimit:4;stroke-dasharray:none" /><path
     id="path878"
     d="m 277.28909,314.16819 v -31.66036 c 0,0 43.14159,12.87289 0,31.66036 z"
     style="fill:none;stroke:#000000;stroke-width:2;stroke-linecap:butt;stroke-linejoin:miter;stroke-miterlimit:4;stroke-dasharray:none;stroke-opacity:1" /><path
     style="fill:none;stroke:#000000;stroke-width:2;stroke-linecap:butt;stroke-linejoin:miter;stroke-miterlimit:4;stroke-dasharray:none;stroke-opacity:1"
     d="M 304.07863,313.47236 V 281.812 c 0,0 43.14159,12.87289 0,31.66036 z"
     id="path880" /><ellipse
     style="opacity:0.999;fill:#ffffff;fill-opacity:1;stroke:#000000;stroke-width:2;stroke-miterlimit:4;stroke-dasharray:none"
     id="ellipse882"
     cx="91.849831"
     cy="300.42554"
     rx="14.612474"
     ry="14.786432" /><path
     style="fill:none;stroke:#000000;stroke-width:2;stroke-linecap:butt;stroke-linejoin:miter;stroke-miterlimit:4;stroke-dasharray:none;stroke-opacity:1"
     d="m 112.7248,315.90777 v -31.66036 c 0,0 43.14159,12.87289 0,31.66036 z"
     id="path884" /><path
     id="path886"
     d="m 139.51434,315.21194 v -31.66036 c 0,0 43.14159,12.87289 0,31.66036 z"
     style="fill:none;stroke:#000000;stroke-width:2;stroke-linecap:butt;stroke-linejoin:miter;stroke-miterlimit:4;stroke-dasharray:none;stroke-opacity:1" /><ellipse
     ry="14.786432"
     rx="14.612474"
     cy="226.66733"
     cx="93.937325"
     id="ellipse888"
     style="opacity:0.999;fill:#ffffff;fill-opacity:1;stroke:#000000;stroke-width:2;stroke-miterlimit:4;stroke-dasharray:none" /><path
     id="path890"
     d="m 114.8123,242.14957 v -31.66036 c 0,0 43.14159,12.87289 0,31.66036 z"
     style="fill:none;stroke:#000000;stroke-width:2;stroke-linecap:butt;stroke-linejoin:miter;stroke-miterlimit:4;stroke-dasharray:none;stroke-opacity:1" /><path
     style="fill:none;stroke:#000000;stroke-width:2;stroke-linecap:butt;stroke-linejoin:miter;stroke-miterlimit:4;stroke-dasharray:none;stroke-opacity:1"
     d="m 141.60184,241.45374 v -31.66036 c 0,0 43.14159,12.87289 0,31.66036 z"
     id="path892" /><path
     id="path894"
     d="m 36.531185,215.36003 6.958321,-6.95832 v 34.09578 H 31.312444 55.666568"
     style="fill:none;stroke:#000000;stroke-width:2;stroke-linecap:butt;stroke-linejoin:miter;stroke-opacity:1;stroke-miterlimit:4;stroke-dasharray:none" /><circle
     r="3.4791605"
     cy="241.10582"
     cx="62.276974"
     id="path896"
     style="opacity:0.999;fill:#000000;fill-opacity:1;stroke:#000000;stroke-width:2;stroke-miterlimit:4;stroke-dasharray:none" /><circle
     style="opacity:0.999;fill:#000000;fill-opacity:1;stroke:#000000;stroke-width:2;stroke-miterlimit:4;stroke-dasharray:none"
     id="circle898"
     cx="213.62045"
     cy="237.97458"
     r="3.4791605" /><circle
     r="3.4791605"
     cy="312.77652"
     cx="215.70795"
     id="circle900"
     style="opacity:0.999;fill:#000000;fill-opacity:1;stroke:#000000;stroke-width:2;stroke-miterlimit:4;stroke-dasharray:none" /><circle
     style="opacity:0.999;fill:#000000;fill-opacity:1;stroke:#000000;stroke-width:2;stroke-miterlimit:4;stroke-dasharray:none"
     id="circle902"
     cx="60.189472"
     cy="313.47235"
     r="3.4791605" /><path
     id="path904"
     d="m 206.31422,241.45374 h -21.91871 c 0,0 43.62554,-50.5851 0,-25.39787"
     style="fill:none;stroke:#000000;stroke-width:2;stroke-linecap:butt;stroke-linejoin:miter;stroke-opacity:1;stroke-miterlimit:4;stroke-dasharray:none" /><path
     id="path906"
     d="m 34.443689,284.24741 c 0,0 47.664499,0.34792 0,16.00414"
     style="fill:none;stroke:#000000;stroke-width:2;stroke-linecap:butt;stroke-linejoin:miter;stroke-miterlimit:4;stroke-dasharray:none;stroke-opacity:1" /><path
     id="path908"
     d="m 34.443689,300.25155 c 0,0 50.447827,1.04375 0,16.00414"
     style="fill:none;stroke:#000000;stroke-width:2;stroke-linecap:butt;stroke-linejoin:miter;stroke-miterlimit:4;stroke-dasharray:none;stroke-opacity:1" /><path
     id="path910"
     d="M 206.66213,316.25569 V 281.812 l -16.87393,16.87393 h 17.22185"
     style="fill:none;stroke:#000000;stroke-width:2;stroke-linecap:butt;stroke-linejoin:miter;stroke-opacity:1;stroke-miterlimit:4;stroke-dasharray:none" /></svg>

<svg xmlns="http://www.w3.org/2000/svg" xml:space="preserve" viewBox="0 0 348 348" y="0" x="0" id="Layer_1" version="1.1"><style id="style2">.st0{stroke:#000;stroke-width:2;fill:none}</style><path id="path4" d="M5.1 5.8H342v337.7H5.1V5.8z" class="st0"/><path id="path6" d="M282.7 40.6c0-8.4 7-15.2 15.6-15.2 4.1 0 8.1 1.6 11 4.4 2.9 2.8 4.6 6.7 4.6 10.7 0 8.4-7 15.2-15.6 15.2s-15.6-6.8-15.6-15.1z" class="st0"/><path id="rect842" opacity=".999" fill="#fff" stroke="#000" stroke-width="2.078" fill-opacity="1" stroke-miterlimit="4" stroke-dasharray="none" d="M10.649 10.327h168.129v168.129H10.649z"/><path id="path844" d="M15.167 31.302l12.908 44.21 12.586-45.5 15.167 44.533 9.681-43.243" fill="none" stroke="#000" stroke-width="1.9" stroke-linecap="butt" stroke-linejoin="miter" stroke-opacity="1" stroke-miterlimit="4" stroke-dasharray="none"/><path id="path846" d="M80.369 30.965v46.62-25.05h17.395V30.27v47.316" fill="none" stroke="#000" stroke-width="2" stroke-linecap="butt" stroke-linejoin="miter" stroke-opacity="1" stroke-miterlimit="4" stroke-dasharray="none"/><path id="path848" d="M125.598 30.617l-16.004 46.968 10.09-28.877h16.003l12.873 25.05z" fill="none" stroke="#000" stroke-width="2" stroke-linecap="butt" stroke-linejoin="miter" stroke-opacity="1" stroke-miterlimit="4" stroke-dasharray="none"/><path id="path850" d="M22.962 89.067v81.412h51.492" fill="none" stroke="#000" stroke-width="2" stroke-linecap="butt" stroke-linejoin="miter" stroke-opacity="1" stroke-miterlimit="4" stroke-dasharray="none"/><path id="path852" d="M88.37 90.11v82.108h55.32-55.32v-42.445h45.578H88.37V89.414h53.927" fill="none" stroke="#000" stroke-width="2" stroke-linecap="butt" stroke-linejoin="miter" stroke-opacity="1" stroke-miterlimit="4" stroke-dasharray="none"/><path id="rect854" opacity=".999" fill="#fff" fill-opacity="1" stroke="#000" stroke-width="2" stroke-miterlimit="4" stroke-dasharray="none" d="M16.352 204.923h152.735v41.75H16.352z"/><path id="rect856" opacity=".999" fill="#fff" fill-opacity="1" stroke="#000" stroke-width="2" stroke-miterlimit="4" stroke-dasharray="none" d="M178.829 204.575h152.735v41.75H178.829z"/><path id="rect858" opacity=".999" fill="#fff" fill-opacity="1" stroke="#000" stroke-width="2" stroke-miterlimit="4" stroke-dasharray="none" d="M17.396 278.681h152.735v41.75H17.396z"/><path id="rect860" opacity=".999" fill="#fff" fill-opacity="1" stroke="#000" stroke-width="2" stroke-miterlimit="4" stroke-dasharray="none" d="M179.525 277.637H332.26v41.75H179.525z"/><ellipse id="ellipse870" cx="252.935" cy="226.319" rx="14.612" ry="14.786" opacity=".999" fill="#fff" fill-opacity="1" stroke="#000" stroke-width="2" stroke-miterlimit="4" stroke-dasharray="none"/><path d="M273.81 241.802v-31.66s43.142 12.872 0 31.66z" id="path872" fill="none" stroke="#000" stroke-width="2" stroke-linecap="butt" stroke-linejoin="miter" stroke-miterlimit="4" stroke-dasharray="none" stroke-opacity="1"/><path id="path874" d="M300.6 241.106v-31.66s43.141 12.872 0 31.66z" fill="none" stroke="#000" stroke-width="2" stroke-linecap="butt" stroke-linejoin="miter" stroke-miterlimit="4" stroke-dasharray="none" stroke-opacity="1"/><ellipse ry="14.786" rx="14.612" cy="298.686" cx="256.414" id="ellipse876" opacity=".999" fill="#fff" fill-opacity="1" stroke="#000" stroke-width="2" stroke-miterlimit="4" stroke-dasharray="none"/><path id="path878" d="M277.29 314.168v-31.66s43.14 12.873 0 31.66z" fill="none" stroke="#000" stroke-width="2" stroke-linecap="butt" stroke-linejoin="miter" stroke-miterlimit="4" stroke-dasharray="none" stroke-opacity="1"/><path d="M304.079 313.472v-31.66s43.141 12.873 0 31.66z" id="path880" fill="none" stroke="#000" stroke-width="2" stroke-linecap="butt" stroke-linejoin="miter" stroke-miterlimit="4" stroke-dasharray="none" stroke-opacity="1"/><ellipse id="ellipse882" cx="91.85" cy="300.426" rx="14.612" ry="14.786" opacity=".999" fill="#fff" fill-opacity="1" stroke="#000" stroke-width="2" stroke-miterlimit="4" stroke-dasharray="none"/><path d="M112.725 315.908v-31.66s43.141 12.872 0 31.66z" id="path884" fill="none" stroke="#000" stroke-width="2" stroke-linecap="butt" stroke-linejoin="miter" stroke-miterlimit="4" stroke-dasharray="none" stroke-opacity="1"/><path id="path886" d="M139.514 315.212v-31.66s43.142 12.872 0 31.66z" fill="none" stroke="#000" stroke-width="2" stroke-linecap="butt" stroke-linejoin="miter" stroke-miterlimit="4" stroke-dasharray="none" stroke-opacity="1"/><ellipse ry="14.786" rx="14.612" cy="226.667" cx="93.937" id="ellipse888" opacity=".999" fill="#fff" fill-opacity="1" stroke="#000" stroke-width="2" stroke-miterlimit="4" stroke-dasharray="none"/><path id="path890" d="M114.812 242.15v-31.66s43.142 12.872 0 31.66z" fill="none" stroke="#000" stroke-width="2" stroke-linecap="butt" stroke-linejoin="miter" stroke-miterlimit="4" stroke-dasharray="none" stroke-opacity="1"/><path d="M141.602 241.454v-31.66s43.141 12.872 0 31.66z" id="path892" fill="none" stroke="#000" stroke-width="2" stroke-linecap="butt" stroke-linejoin="miter" stroke-miterlimit="4" stroke-dasharray="none" stroke-opacity="1"/><path id="path894" d="M36.531 215.36l6.959-6.958v34.095H31.312h24.355" fill="none" stroke="#000" stroke-width="2" stroke-linecap="butt" stroke-linejoin="miter" stroke-opacity="1" stroke-miterlimit="4" stroke-dasharray="none"/><circle r="3.479" cy="241.106" cx="62.277" id="path896" opacity=".999" fill="#000" fill-opacity="1" stroke="#000" stroke-width="2" stroke-miterlimit="4" stroke-dasharray="none"/><circle id="circle898" cx="213.62" cy="237.975" r="3.479" opacity=".999" fill="#000" fill-opacity="1" stroke="#000" stroke-width="2" stroke-miterlimit="4" stroke-dasharray="none"/><circle r="3.479" cy="312.777" cx="215.708" id="circle900" opacity=".999" fill="#000" fill-opacity="1" stroke="#000" stroke-width="2" stroke-miterlimit="4" stroke-dasharray="none"/><circle id="circle902" cx="60.189" cy="313.472" r="3.479" opacity=".999" fill="#000" fill-opacity="1" stroke="#000" stroke-width="2" stroke-miterlimit="4" stroke-dasharray="none"/><path id="path904" d="M206.314 241.454h-21.918s43.625-50.585 0-25.398" fill="none" stroke="#000" stroke-width="2" stroke-linecap="butt" stroke-linejoin="miter" stroke-opacity="1" stroke-miterlimit="4" stroke-dasharray="none"/><path id="path906" d="M34.444 284.247s47.664.348 0 16.005" fill="none" stroke="#000" stroke-width="2" stroke-linecap="butt" stroke-linejoin="miter" stroke-miterlimit="4" stroke-dasharray="none" stroke-opacity="1"/><path id="path908" d="M34.444 300.252s50.448 1.043 0 16.004" fill="none" stroke="#000" stroke-width="2" stroke-linecap="butt" stroke-linejoin="miter" stroke-miterlimit="4" stroke-dasharray="none" stroke-opacity="1"/><path id="path910" d="M206.662 316.256v-34.444l-16.874 16.874h17.222" fill="none" stroke="#000" stroke-width="2" stroke-linecap="butt" stroke-linejoin="miter" stroke-opacity="1" stroke-miterlimit="4" stroke-dasharray="none"/></svg>
